X:1
T:0 amantissime Iesu
T:0 amantissime Iesu
T:Francesco della Porta
C:Francesco della Porta
%%score [ 1 2 3 ] { 4 | 5 }
L:1/8
Q:1/4=120
M:4/4
K:F
V:1 treble-8 nm="Tenor 1" snm="T 1"
V:2 treble-8 nm="Tenor 2" snm="T 2"
V:3 bass nm="Bass" snm="B"
V:4 treble nm="MusicXML Part"
V:5 bass 
V:1
 g6 fg | _e6 fe | dd g4 fg | _e6 fe | d2 dd dddd | _e2 e2 z eee | f2 f2 z fff | g2 g2 z2 g2- | %8
w: O a- man-|tis- si- me|Ie- su, O be- nin-|gnis- si- me|Ie- su, mel- li- flu- a dul-|ce- do, O dul- cis|vi- ta, vi- ta- lis|a- mor, O|
 gf_ed e4- | ed ef d>d d2 | z2 gf _e2 e2 | _agf_e d3 d | c4 _agf_e | d3 d c4 || %14
w: _ a- man- tis a-|* * * * * ni- mae,|vi- ta, vi- ta,|vi- ta su- a- vis- si-|ma, vi- ta su- a|vis- si- ma.|
[M:3/2]S"^Presto" z12 | z12 |"^7""^4  3" z12 | z12 | z12 | z12 | z12 | z12 | G4 G4 G4 | B6 A2 G4 | %24
w: ||||||||Fe- sti- na|ob- se- cro|
 d6 c2 B4 | f6 _e2 d4 | c4 c4 d4 | _e6 d2 c4 | g6 f2 _e4 | b6 _a2 g4 | f4 f4 g4 | _a4 g4 f4 | %32
w: pro- pe- ra,|pro- pe- ra,|fe- sti- na|ob- se- cro,|pro- pe- ra,|pro- pe- ra|cur- re suc-|cur- re, suc-|
 _e4 e4 f4 | g6 _a2 b4 | f4 f6 f2 ||[M:2/2]"^Adagio" _e4 z2 g2 | f2 f2 z ^ffg | d>d d2 z2 d2 | %38
w: cur- re suc-|cur- re mi-|hi mi- se-|rae. Lan-|guen- ti, lan- guen- ti|sub- ve- ni, a-|
 _e2 e2 z2 g2 | _a2 a2 z2 _e2- |O e2 z d d4 || c2 z c df_ed | _ecee f_a_gf | g>ggB c_edc | %44
w: de- sto, a-|de- sto su-|* spi- ran-|ti, ad te, ad te su-|spi- ro Ie- su, Ie- su me- um|gau- di- um, ad te, ad te as-|
 dBBc/d/ _e d/e<AG/ | G2 _ef/g/ _a g/a<dc/ | c4 z2 d_e |"^Presto""^6\n5" _e3 d c2 z e | %48
w: pi- ro ut in te sem- per _ gau- de-|am, ut in te sem- per _ gau- di-|am et re-|spi- * rem, tu|
 d>dd_e d>dde | ff/f/gg z _eff/f/ | g_a/b/_ed/c/ ff/f/gg | z c/c/f_e/f/ dc/d/ed/e/ | %52
w: gau- di- um, tu- gau- di- um, tu|re- qui- es me- a, tu gau- di- um|me- um, tu gau- di- um, gau- di- um me- um|per te gau- de- o si- ne te lan- gue- o,|
 z g/g/gg gg/^f/gf/g/ | z8 | z G/B/cB/c/ AG/A/BA/B/ | z _e/e/_ag/a/ dc/d/ed/e/ | %56
w: per te vi- vo si- ne te mo- ri- or,||per te gau- de- o si- ne te lan- gue- o,|per te gau- de- o si- ne te lan- gue- o,|
 z g/g/ff ff/f/gg/g/ | z2 ff/_e/ d3 d |"^Adagio" c4 z4 | z8 | z8 | z8 | z8 | z8 | z8!D.S.! || %65
w: per te vi- vo si- ne te mo- ri- or,|si- ne te mo- ri-|or,|||||||
[M:4/4]O c4 z4 | z8 | z8 | z8 | z8 |"^-natural" z8 | z8 | z8 | z2 gg gg z g | _ee z f dd z g | %75
w: ti,||||||||O quam fe- lix, quam|fe- lix, quam lae- ta, quam|
"^b""^b" ee z f dd z g | _ef/g/ f>f g>g g_a |"^6" f>f gg z _a f>f | ggcc cc/c/ c>c | %79
w: fe- lix, quam lae- ta, quam|hi- la- ris mi- hi mo- ri- ar, et|ti- bi vi- vam, et ti- bi|vi- vam, dul- cis vi- ta vi- ta- lis|
 cc z g/f/ _e c/B/ A>A | Gg/f/ _e2 z2 z g/f/ | _ee/e/ ee ee/e/ e>d | _ee z B/A/ G e/d/ c>c | %83
w: a- mor, Ie- su mi- dul- * cis- si-|me, Ie- su mi dul- *|cis- si- me dul- cis vi- ta vi- ta- lis|a- mor, Ie- su mi dul- * cis- si-|
 dc/B/ A2 z2 z a/g/ | ^ff/f/ gg gg/g/ g>f | gg_ee ee/d/ d>d | cc z g/f/ _e2 z f/e/ | %87
w: me Ie- su mi, dul- *|cis- si- me, dul- cis vi- ta vi- ta- lis|a- mor dul- cis vi- ta vi- ta- lis|a- mor, Ie- su mi, Ie- su|
 d2 z f/_e/ d>d c2 |"^Adagio""^4  3" z2 gf _e4 | z2 f_e d3 d |"^5""^6 5""^-natural" c8 |] %91
w: mi, dul- * cis- si- me|Ie- su mi,|dul- * cis- si-|me.|
V:2
 z4 _e4- | e2 de c2 dc | =B2 B2 _e4- | e2 de c2 dc | =B2 B2 z2 z B | =BBBc c2 c2 | z ccc d2 d2 | %7
w: O|_ a- man- tis- si- me|Ie- su, O|_ be- nin- gnis- si- me|Ie- su, mel-|li- flu- a dul- ce- do,|O dul- cis vi- ta,|
 z ddd _ee e2- | edc=B c4- | c=B cd B>B B2 | z2 ed c2 c2 | f_edc c3 =B | c4 c=Bcc | c3 =B c4 || %14
w: vi- ta- lis a- mor, O|_ a- man- tis a-|* * * * * ni- mae,|vi- ta, vi- ta,|vi- ta su- a- vis- si-|ma, vi- ta su- a-|vis- si- ma.|
[M:3/2] G4 G4 G4 | B6 A2 G4 | c6 B2 A4 | d4 d4 _e4 | f4 _e4 d4 | c4 c4 d4 | _e6 d2 c4 | B4 A6 A2 | %22
w: Fe- sti- na|ob- se- cro|pro- pe- ra|cur- re suc-|cur- re, suc-|cur- re, suc-|cur- re mi-|hi mi- se-|
 G8 z4 | z12 | z12 | F4 F4 G4 | A6 G2 F4 | G4 G4 z4 | z12 | B4 B4 B4 | d6 c2 B4 | f6 _e2 d4 | %32
w: rae|||cur- re suc-|cur- re, suc-|cur- re,||fe- sti- na|ob- se- cro,|pro- pe- ra,|
 c4 c4 d4 | _e4 e4 e4 | _e4 e6 d2 ||[M:2/2] _e4 z2 B2 | d2 d2 z ccc | =B>B B2 z2 B2 | %38
w: cur- re suc-|cur- re- mi-|hi mi- se-|rae. Lan-|guen- ti, lan- guen- ti|sub- ve- ni, a-|
"^-natural" c2 c2 z2 e2 | f2 f2 z2 c2- | c2 z c c3 =B || c4 z4 | z8 | z8 | z8 | z8 | z8 | %47
w: de- sto, a-|de- sto su-|* spi- ran- *|ti,||||||
 z4 z2 z G | =B>BBc B>BBc | dc/d/_ee z edc/d/ | _ee/e/cd/e/ dc/d/ee | z8 | %52
w: tu|gau- di- um, tu gau- di- um, tu|re- qui- es me- a, tu gau- di- um|me- um, tu gau- di- um, gau- di- um me- um||
 z B/B/_ed/e/ AG/A/BA/B/ | z c/c/cc cc/=B/cB/c/ | z B/B/_ed/e/ dd/d/dc/d/ | %55
w: per te gau- de- o si- ne te lan- gue- o|per te vi- vo si- ne te mo- ri- or,|per te gau- de- o si- ne te lan- gue- o,|
 z c/c/fe/f/ =BA/B/cB/c/ | z _e/e/ee ee/d/ee/e/ | z2 dd/c/ c3 =B | c2 z G c2 z G | %59
w: per te gau- de- o si- ne te lan- gue- o,|per te vi- vo si- ne te mo- ri- or,|si- ne te mo- ri-|or, ad te su-|
 c=Bcd B>BB z/ G/ | c=Bcd B2 z d | GABc ^F>F F2 | z2 dd d2 dA | B>B B2 z2 fc | c3 B B4 || %65
w: spi- rat a- ni- ma, ad te ad|te a- spi- rat cor, ad|tu- a cur- ro- vul- ne- ra,|ut in- trem in te|sau- ci- a et _|sa- nes me.|
[M:4/4] c4 z4 | z8 | z8 | z8 | z8 | z8 | z8 | z8 | z2 _ed ee z =B | cc z d =BB z B | %75
w: ti,||||||||O quam fe- lix, quam|fe- lix, quam lae- ta, quam|
 cc z d =BB z B | cd/_e/ e>d e>e ee | _e>d ee z e e>d | _ee z2 z4 | z8 | z2 cc cc/c/ c=B | %81
w: fe- lix, quam lae- ta, quam|hi- la- ris mi- hi mo- ri- ar, et|ti- bi vi- vam, et ti- bi|vi- vam,||dul- cis vi- ta vi- ta- lis|
 cc z _e/d/ c _A/G/ F>F | G_A/G/ F d/c/ B_E F2 | z2 dd dd/d/ d>^c | dd z g/f/ _e c/B/ A>A | %85
w: a- mor, Ie- su mi- dul- * cis- si|me, Ie- su mi dul _ cis- si- me,|dul- cis vi- ta- vi- ta- lis|a- mor, Ie- su mi dul- * cis- si-|
 =B2 cc cc/c/ c>B | cc z _e/d/ c2 z d/c/ | =B2 z d/c/ c>B c2 | z2 _ed c4 | z2 dc c3 =B | c8 |] %91
w: me, dul- cis vi- ta vi- ta- lis|a- mor, Ie- su mi, Ie- su|mi, dul- * cis- si- me|Ie- su mi,|dul- * cis- si-|me.|
V:3
 z4 C4- | C2 B,C _A,2 F,F, | G,2 G,2 C4- | C2 B,C _A,2 F,F, | G,2 G,2 z2 z G, | G,G,G,_A, A,2 A,2 | %6
w: O|_ a- man- tis- si- me|Ie- su, O|_ be- nin- gnis- si- me|Ie- su, mel-|li- flu- a dul- ce- do,|
"^-natural" z A,A,A, B,2 B,2 | z =B,B,B, C2 C2 | z2 C3 B,_A,G, | _A,2 G,F, G,>G, G,2 | %10
w: O dul- cis vi- ta,|vi- ta- lis _ mor,|O a- man- tis|a- * * * ni- mae,|
 z4 z2 _A,G, | F,G,_A,F, G,3 G,, | C,4 F,G,_A,F, | G,3 G,, C,4 ||[M:3/2] z12 | z12 | z12 | z12 | %18
w: vi- ta,|vi- ta su- a- vis si-|ma, vi- ta su- a-|vis- si- ma.|||||
 z12 | z12 | z12 | z12 | z12 | G,,4 G,,4 G,,4 | B,,6 A,,2 G,,4 | D,6 C,2 B,,4 | F,6 _E,2 D,4 | %27
w: |||||Fe- sti- na|ob- se- cro|pro- pe- ra,|pro- pe- ra,|
 C,4 C,4 C,4 | _E,6 D,2 C,4 | G,6 F,2 _E,4 | B,6 _A,2 G,4 | F,4 F,4 G,4 | _A,4 G,4 F,4 | %33
w: fe- sti- na|ob- se- cro,|pro- pe- ra,|pro- pe- ra|cur- re suc-|cur- re, suc-|
 _E,6 F,2 G,4 | _A,4 B,4 B,,4 ||[M:2/2] _E,4 z2 E,2 | B,2 B,2 z _A,A,A, | G,>G, G,2 z2 G,2 | %38
w: cur- re mi-|hi mi- se-|rae. Lan-|guen- ti, lan- guen- ti|sub- ve- ni, a-|
 C,2 C,2 z2 C2 | F,2 F,2 z2 ^F,2- | F,2 z ^F, G,4 || C,4 z4 | z8 | z8 | z8 | z8 | z8 | z4 z2 z C, | %48
w: de- sto, a-|de- sto su|_ spi- ran-|ti,||||||tu|
 G,>G,G,C, G,>G,G,C | B,_A,/B,/_E,E, z CB,A,/B,/ | _E,F,/G,/_A,B,/C/ B,A,/B,/E,E, | z8 | z8 | %53
w: gau- di- um, tu gau- di- um, tu|re- qui- es me- a, tu gau- di- um|me- um, tu gau- di- um, gau- di- um me- um|||
 z C,/C,/F,_E,/F,/ D,C,/D,/E,D,/E,/ | z G,/G,/G,G, G,G,/^F,/G,G,/G,/ | %55
w: per te gau- de- o si- ne te lan- gue- o|per te- vi- vo si- ne te mo- ri- or,|
 z _A,/A,/F,F,/F,/ G,G,/G,/C,C,/C,/ | z C/C/_A,A, B,B,/B,,/_E,E,/E,/ | F,2 F,F, G,2 G,,2 | C,4 z4 | %59
w: per te gau- de- o si- ne te lan- gue- o,|per te vi- vo si- ne te mo- ri- or,|si- ne te mo- ri-|or,|
 z8 | z8 | z8 | z8 | z8 | z8 ||[M:4/4] C,4 z2 CB, | _A,G,A,F, G,>G, G,2 | _E,F,G,E, B,>B, B,2 | %68
w: ||||||ti, ah mi|Ie- su, ec- ce ve- ni- o,|quae- ro, quae- ro vul- ne- ra|
 z2 _E,E, _A,2 A,2 | _A,A,G,G, F,3 G,/F,/ | _E,4 C,C,B,,B,, | _A,,3 B,,/A,,/ G,,2 G,G, | %72
w: vo- lo pa- ti,-|quae- ro mo- ri Ie- su pro-|te, mo- ri, mo- ri|Ie- su pro te, mo- ri,|
 _A,3 _E, F,2 G,G,, | C,2 C=B, CC z G, | _A,A, z F, G,G, z G, | _A,A, z F, G,G, z G, | %76
w: mo- ri Ie- su pro|te, O quam fe- lix, quam|fe- lix, quam lae- ta, quam|fe- lix, quam lae- ta, quam|
 CB,/_A,/ B,>B,, E,>E, E,A, | B,>B,, _E,E, z _A, B,>B,, | _E,E, z2 z4 | z2 G,G, G,G,/G,/ G,>^F, | %80
w: hi- la- ris mi- hi mo- ri- ar, et|ti- bi vi- vam, et ti- bi|vi- vam,|dul- cis- vi- ta vi- ta- lis|
 G,G, z C/B,/ _A, F,/_E,/ D,>D, | C,2 G,,2 _A,,2 B,,2 | _E,2 B,B, B,B,/B,/ B,>A, | %83
w: a- mor, Ie- su mi dul- * cis- si|me, dul- cis- si-|me, dul- cis vi- ta vi- ta- lis|
 B,B, z D/C/ B, G,/F,/ E,>E, | D,2 z _E,/D,/ C,C, D,>D, | G,2 _A,A, _E,E,/F,/ G,>G,, | %86
w: a- mor, I- su mi dul- * cis- si-|me Ie- su mi dul- cis- si-|me, dul- cis vi- ta vi- ta- lis|
 C,C, z2 z _A,/G,/ F,F,/F,/ | G,2 z F, G,>G,, C,2 | z4 z2 _A,G, | F,2 F,2 G,3 G,, | C,8 |] %91
w: a- mor, Ie- su mi, Ie- su|mi, dul- cis- si- me|Ie- su|mi dul- cis- si-|me.|
V:4
"^Adagio" z8 | z8 | z8 | z8 | z8 | z8 | z8 | z8 | z8 | z8 | z8 | z8 | z8 | z8 || %14
[M:3/2]"^Presto" z12 | z12 | z12 | z12 | z12 | z12 | z12 | z12 | z12 | z12 | z12 | z12 | z12 | %27
 z12 | z12 | z12 | z12 | z12 | z12 | z12 | z12 ||[M:2/2]"^Adagio" z8 | z8 | z8 | z8 | z8 | z8 || %41
 z8 | z8 | z8 | z8 | z8 | z8 |"^Presto" z8 | z8 | z8 | z8 | z8 | z8 | z8 | z8 | z8 | z8 | z8 | %58
"^Adagio" z8 | z8 | z8 | z8 | z8 | z8 | z8 ||[M:4/4] z8 | z8 | z8 | z8 | z8 | z8 | z8 | z8 | %73
"^Presto" z8 | z8 | z8 | z8 | z8 | z8 | z8 | z8 | z8 | z8 | z8 | z8 | z8 | z8 | z8 |"^Adagio" z8 | %89
 z8 | z8 |] %91
V:5
"^b""^b" C,4 C4- |"^6""^b" C2 B,C _A,2 F,2 |"^-natural""^b" G,4 C4- | %3
"^6 5""^b""^b" C2 B,C _A,2 F,2 | G,8 | G,4 _A,4 |"^b" A,4 B,4 | =B,4 C4 |"^b" C6 _A,2- | %9
"^5""^6""^b" A,2 G,F, G,4 |"^5" _E,4 _A,4 |"^6" F,G,_A,F, G,4 | C,4 F,G,_A,F, | %13
"^4   3""^6""^7" G,4 C,4 ||[M:3/2] _E,12 | G,12 | F,12 | B,,8 C,4 | D,8 _E,4 | F,4 _E,4 D,4 | %20
 C,6 D,2 _E,4 |"^b" C,4 D,4 D,,4 | G,,12 | G,,8 G,,4 | B,,6 A,,2 G,,4 |"^b" D,6 C,2 B,,4 | %26
"^6""^-natural" F,6 _E,2 D,4 |"^b" C,8 C,4 |"^b" _E,6 D,2 C,4 |"^b" G,6 F,2 _E,4 | B,6 _A,2 G,4 | %31
"^b" F,8 F,4 |"^7""^5""^b" _A,4 G,4 F,4 |"^6""^b" _E,6 F,2 G,4 |"^6\n5" _A,4 B,4 B,,4 || %35
[M:2/2] _E,4 z2 E,2 | B,4 _A,4 | G,4 z2 G,2 | C,4 z2 C2 |"^b" F,4 z2 ^F,2- | F,2 z ^F, G,4 || %41
"^5" C,2 _A,,2 F,,2 G,,2 |"^6\n5""^b""^b" C,2 C2 _A,2 B,2 | _E,3 G, E,2 F,2 | %44
"^b" B,,2 _E,2 C,2 D,2 |"^4 3""^#""^b" G,,2 _A,,2 F,,2 G,,2 |"^4 3""^6\n5""^#" C,4 ^F,4 | %47
"^b" G,4 C,2 z C, |"^b""^-natural""^b" G,3 C, G,3 C |"^b" B,_A,/B,/ _E,2 z CB,A,/B,/ | %50
 _E,2 _A,2 B,2 E,2 |"^-natural""^b" _A,2 F,2 G,2 C,2 |"^4 3""^b""^#" _E,2 C,2 D,2 G,,2 | %53
"^b" _A,,2 F,,2 G,,2 C,2 |"^4 3""^b""^#" _E,2 C,2 D,2 G,,2 |"^-natural""^b""^b" _A,2 F,2 G,2 C,2 | %56
"^6\n5""^b""^b" C2 _A,2 B,2 _E,2 |"^-natural""^b" F,4 G,4 |"^b" C,8 | _A,,4 G,,4 | %60
"^-natural" _A,,4 G,,4 |"^#" _E,4 D,4 | ^F,,8 |"^-natural" G,,4 D,4 | _E,2 F,2 B,,4 || %65
[M:4/4] C,4 C4 | _A,3 F, G,4 | _E,4 B,,4 |"^b" _E,4 _A,4- | A,2 G,2 F,4 | _E,4 C,2 B,,2 | %71
 _A,,4 G,,2 G,2 |"^6\n5" _A,3 _E, F,2 G,2 |"^b""^b""^-natural" C,2 C=B, C2 z G, | %74
"^-natural""^-natural" _A,2 z F, G,2 z G, |"^6""^-natural" _A,2 z F, G,2 z G, | %76
"^7""^4""^b" CB,/_A,/ B,>B,, _E,3 A, |"^4  3" B,2 _E,2 z _A, B,2 | _E,2 _A,2 F,2 G,2 | %79
"^b" C,2 _E,2 C,2 D,2 | G,,2 _A,,2 F,,2 G,,2 |"^6""^b""^b" C,2 G,,2 _A,,2 B,,2 | %82
"^4  2""^6""^-natural" _E,2 D,2 E,2 F,2 |"^4  3""^4 3""^#" B,,2 ^F,,2 G,,2 A,,2 | %84
"^#""^b" D,2 _E,2 C,2 D,2 |"^5""^6""^5""^-natural""^b""^#" G,2 _A,2 _E,>F, G,>G,, | %86
"^b""^b" C,4 _A,2 F,2 |"^b" G,2 F,2 G,2 C,2 |"^b" C,4 _A,4 |"^-natural" F,4 G,4 | C,8 |] %91

